X:32
T:A Kippet Lee in a Loppin Lor
C:Roy Watrous, 1989
S:The Watrous Book, 1992
M:2/4
L:1/16
Q:1/4=90
K:G
%%MIDI program 72
%%MIDI transpose 8
%%MIDI ratio 3 1
{DEF}G2ba g2fg|agfe d3d|GBdg GBdg|egdB A2D2|G2ba g2fg|
agfe d3d|egdB egdB|dcAB G4::e2e2 e2fg|fedf edBd|e2e2 e2fg|
fafd e3d|b2ba g2fg|agfe d3d|egdB egdB|egfa g4:|]

